X: 36164
T: Scotland-Ireland
R: jig
M: 6/8
K: Emajor
DFF ABB|EBB BAA|DFF ABB|Ecc cBB|DFF ABB|
EBB BAA|1 cee cBA|cec B2B:|2 cee fef|cBA B3||
cAc =dcd|efe cAA|cAc =dcd|efe dBB|
cAc =d3|efe dff|eab afe|cBA B3:|

